svg/u1f9d9_1f3fe_200d_2640.svg

<svg viewBox="0 0 128 128" xmlns="http://www.w3.org/2000/svg">
  <linearGradient id="hat_x5F_back_2_" gradientTransform="matrix(1 0 0 -1 0 130)" gradientUnits="userSpaceOnUse" x1="55.843" x2="55.843" y1="90.8252" y2="56.1261">
    <stop offset="5.450581e-05" stop-color="#05080F"/>
    <stop offset="0.1125" stop-color="#070A15"/>
    <stop offset="0.2637" stop-color="#0B1026"/>
    <stop offset="0.4371" stop-color="#131A42"/>
    <stop offset="0.6268" stop-color="#1D286A"/>
    <stop offset="0.8276" stop-color="#2B399B"/>
    <stop offset="1" stop-color="#384ACC"/>
  </linearGradient>
  <ellipse id="hat_x5F_back_1_" cx="55.84" cy="56.69" fill="url(#hat_x5F_back_2_)" rx="49.85" ry="18.32"/>
  <g id="hair_x5F_back">
    <path d="M55.58,30.4c0,0-22.96,1.09-35.75,4.97c-0.47,3.17-3.83,66.52,6,80.17 c3.9,5.41,13.19,5.71,13.19,5.71l16.56-0.03V30.4z" fill="#E7E7E7"/>
    <path d="M55.65,30.4c0,0,22.96,1.09,35.75,4.97c0.47,3.17,3.83,66.52-6,80.17 c-3.9,5.41-13.19,5.71-13.19,5.71l-16.56-0.03V30.4z" fill="#E7E7E7"/>
  </g>
  <g id="hair_x5F_back_1_">
    <g>
      <linearGradient id="SVGID_1_" gradientTransform="matrix(1 0 0 -1 0 130)" gradientUnits="userSpaceOnUse" x1="18.9019" x2="55.583" y1="54.1705" y2="54.1705">
        <stop offset="0" stop-color="#BDBDBD"/>
        <stop offset="0.1386" stop-color="#FFFFFF" stop-opacity="0"/>
      </linearGradient>
      <path d="M55.58,30.4c0,0-22.96,1.09-35.75,4.97c-0.47,3.17-3.83,66.52,6,80.17 c3.9,5.41,13.19,5.71,13.19,5.71l16.56-0.03V30.4z" fill="url(#SVGID_1_)"/>
    </g>
    <g>
      <linearGradient id="SVGID_2_" gradientTransform="matrix(1 0 0 -1 0 130)" gradientUnits="userSpaceOnUse" x1="55.652" x2="92.3331" y1="54.1705" y2="54.1705">
        <stop offset="0.8614" stop-color="#FFFFFF" stop-opacity="0"/>
        <stop offset="1" stop-color="#BDBDBD"/>
      </linearGradient>
      <path d="M55.65,30.4c0,0,22.96,1.09,35.75,4.97c0.47,3.17,3.83,66.52-6,80.17 c-3.9,5.41-13.19,5.71-13.19,5.71l-16.56-0.03V30.4z" fill="url(#SVGID_2_)"/>
    </g>
  </g>
  <linearGradient id="shirt_2_" gradientTransform="matrix(1 0 0 -1 0 130)" gradientUnits="userSpaceOnUse" x1="55.306" x2="55.306" y1="34.0131" y2="-7.8038">
    <stop offset="0" stop-color="#384ACC"/>
    <stop offset="0.216" stop-color="#3548BF"/>
    <stop offset="0.6146" stop-color="#2F449D"/>
    <stop offset="0.9606" stop-color="#283F7A"/>
  </linearGradient>
  <path id="shirt_1_" d="M104.62,124.03v-2.98c0-16.79-24.99-25.09-49.31-25.06 C31.14,96.02,6,103.27,6,121.04v2.98H104.62z" fill="url(#shirt_2_)"/>
  <g id="robe_1_">
    <g>
      <linearGradient id="SVGID_3_" gradientTransform="matrix(1 0 0 -1 0 130)" gradientUnits="userSpaceOnUse" x1="96.2588" x2="120.7042" y1="16.9275" y2="16.9275">
        <stop offset="0" stop-color="#384ACC"/>
        <stop offset="0.216" stop-color="#3548BF"/>
        <stop offset="0.6146" stop-color="#2F449D"/>
        <stop offset="0.9606" stop-color="#283F7A"/>
      </linearGradient>
      <path d="M112.3,102.32c-0.59-0.31-1.31-0.11-1.65,0.46c-1.88,3.15-5.56,5.48-9.12,7.74 c-1.64,1.04-3.32,2.11-4.78,3.23c-0.45,0.35-0.61,0.96-0.38,1.48l3.83,8.73h1.36h2.49h13.92h1.3h1.25 C121.03,118.84,121.16,107.03,112.3,102.32z" fill="url(#SVGID_3_)"/>
    </g>
    <polygon fill="#F9F722" points="36.68,102.22 38.73,104.54 41.8,104.16 40.24,106.82 41.54,109.62 38.53,108.96 36.27,111.07 35.96,108 33.26,106.5 36.09,105.26 "/>
    <polygon fill="#F9F722" points="33.4,114.54 33.9,117.2 36.37,118.3 33.99,119.59 33.71,122.28 31.75,120.43 29.1,120.99 30.26,118.55 28.91,116.21 31.59,116.56 "/>
    <polygon fill="#F9F722" points="57.18,123.97 64.03,123.97 63.78,122.98 66.8,119.52 62.22,119.22 59.86,115.28 58.17,119.54 53.69,120.56 57.22,123.5 "/>
    <polygon fill="#F9F722" points="17.12,109.56 19.27,111.76 22.3,111.25 20.87,113.97 22.3,116.69 19.27,116.17 17.12,118.38 16.68,115.33 13.92,113.97 16.68,112.61 "/>
    <polygon fill="#F9F722" points="79.25,107.19 79.39,110.52 82.21,112.29 79.09,113.45 78.27,116.68 76.2,114.07 72.88,114.3 74.72,111.52 73.48,108.43 76.69,109.32 "/>
  </g>
  <g id="neck_1_">
    <path id="neck" d="M55.61,88.1h-9.08v9.98c0,4.51,3.7,8.17,8.26,8.17h1.65c4.56,0,8.26-3.66,8.26-8.17V88.1 L55.61,88.1z" fill="#7A4C32"/>
  </g>
  <g id="face">
    <g id="head_1_">
      <path id="head_3_" d="M55.61,15.04L55.61,15.04L55.61,15.04c-17.2,0-33.13,12.79-33.13,39.91 c0,21.78,13.49,34.67,25.23,38.83c2.8,0.99,5.5,1.49,7.9,1.49c2.38,0,5.07-0.49,7.85-1.47c11.76-4.14,25.28-17.03,25.28-38.84 C88.74,27.83,72.81,15.04,55.61,15.04z" fill="#A56C43"/>
    </g>
    <g id="hair_x5F_white_2_">
      <radialGradient id="SVGID_4_" cx="55.7895" cy="126.3224" gradientTransform="matrix(1 0 0 -0.9637 0 125.4521)" gradientUnits="userSpaceOnUse" r="33.9296">
        <stop offset="0" stop-color="#FFFFFF"/>
        <stop offset="0.4129" stop-color="#FAF9F8"/>
        <stop offset="0.9948" stop-color="#EBEAE6"/>
        <stop offset="0.9953" stop-color="#EBEAE6"/>
      </radialGradient>
      <path d="M89.88,40.78l-3.05,47.8l-3.78,0.02l2.18-27.98c0.06-3.83,0.49-12.84-2.55-15.03 c-3.69-2.66-13.98-9.67-17.27-16.86c0,0-12.65,11.86-35.01,16.89c-6.09,1.37-5.21,12.18-5.16,15.09 c0.14,7.28,0.89,19.33,1.48,28.12l-3.36,0.01c-1.83-14.29-2.02-49.78-1.19-53.67c2.04-0.85,17.97-8.69,26.3-9.72 C60.68,23.94,82.03,36.02,89.88,40.78z" fill="url(#SVGID_4_)"/>
    </g>
    <path id="mouth_2_" d="M64.14,76.15c-3.12,1.86-13.37,1.86-16.5,0c-1.79-1.07-3.63,0.57-2.88,2.2 c0.73,1.6,6.32,5.32,11.16,5.32S66.27,79.95,67,78.35C67.75,76.72,65.93,75.08,64.14,76.15z" fill="#473530"/>
    <path id="nose_2_" d="M59.67,68.38c-0.1-0.04-0.21-0.07-0.32-0.08h-6.94c-0.11,0.01-0.21,0.04-0.32,0.08 c-0.63,0.25-0.97,0.91-0.68,1.6s1.68,2.64,4.46,2.64s4.17-1.95,4.46-2.64C60.64,69.29,60.3,68.64,59.67,68.38z" fill="#875334"/>
    <g id="eyes_2_">
      <ellipse cx="39.69" cy="59.26" fill="#42312C" rx="4.83" ry="5.01"/>
      <ellipse cx="72.32" cy="59.26" fill="#42312C" rx="4.83" ry="5.01"/>
    </g>
    <g id="eyebrows_x5F_white_2_">
      <path d="M46.4,51.12c-0.86-1.14-2.85-2.8-6.72-2.8s-5.86,1.66-6.72,2.8c-0.38,0.51-0.28,1.09-0.02,1.44 c0.24,0.33,0.97,0.63,1.77,0.36s2.36-1.08,4.97-1.1c2.61,0.02,4.17,0.83,4.97,1.1c0.8,0.27,1.52-0.03,1.77-0.36 C46.69,52.21,46.78,51.63,46.4,51.12z" fill="#FFFFFF"/>
      <path d="M79.03,51.12c-0.86-1.14-2.85-2.8-6.72-2.8c-3.86,0-5.86,1.66-6.72,2.8 c-0.38,0.51-0.28,1.09-0.02,1.44c0.25,0.33,0.97,0.63,1.77,0.36c0.8-0.27,2.36-1.08,4.97-1.1c2.61,0.02,4.17,0.83,4.97,1.1 c0.8,0.27,1.52-0.03,1.77-0.36C79.32,52.21,79.41,51.63,79.03,51.12z" fill="#FFFFFF"/>
    </g>
  </g>
  <g id="hat_1_">
    <g>
      <linearGradient id="SVGID_5_" gradientTransform="matrix(1 0 0 -1 0 130)" gradientUnits="userSpaceOnUse" x1="58.1389" x2="57.7181" y1="125.9875" y2="107.4699">
        <stop offset="0.3696" stop-color="#3649BF"/>
        <stop offset="1" stop-color="#2C4585"/>
      </linearGradient>
      <path d="M74.15,17.45c0.54-1.04,11.23,1.32,12.35-0.44c1.17-1.85-4.65-9.64-17.2-12.09 c-4.22-0.83-9.96-1.95-17.09,0.41c-4.2,1.39-22.87,8.1-27,32.75c-0.01,0.06,64.32,0.24,64.32,0.24 C86.95,29.75,73.61,18.49,74.15,17.45z" fill="url(#SVGID_5_)"/>
    </g>
    <linearGradient id="SVGID_6_" gradientTransform="matrix(1 0 0 -1 0 130)" gradientUnits="userSpaceOnUse" x1="55.8605" x2="55.8605" y1="108.0865" y2="71.2712">
      <stop offset="0.2075" stop-color="#384ACC"/>
      <stop offset="1" stop-color="#1D3678"/>
    </linearGradient>
    <path d="M105.82,54.92c-6.7-28.45-46.53-40.31-73.16-28.41c-8.47,3.54-17.15,9.65-22.75,18.47 c-1.84,2.59-8.84,17.02,1.55,13.08C68.95,24.43,106.18,70.86,105.82,54.92z" fill="url(#SVGID_6_)"/>
  </g>
  <g id="wand">
    <path d="M112.17,81.48l-3.02,2.73l2.42,6.03l7.63-0.11l4.14-11.68l-13.25-11.24L95.5,78.62l7.36,15.37 c-0.55,2.18-3.66,14.45-4.49,17.74c-0.73,2.89-1.71,7.54-2.64,12.17h0.97h0.97h3.82h1h1l8.85-28.81l-7.86-14.19l5.43-3.64 l5.41,2.39l-0.14,2.44L112.17,81.48z" fill="#CF8900"/>
  </g>
  <g id="hand">
    <linearGradient id="hand_2_" gradientTransform="matrix(1 0 0 -1 0 130)" gradientUnits="userSpaceOnUse" x1="89.2016" x2="112.7829" y1="27.949" y2="12.1816">
      <stop offset="0.5" stop-color="#A56C43"/>
      <stop offset="1" stop-color="#8D5738"/>
    </linearGradient>
    <path id="hand_1_" d="M115.57,111.13c-0.14-1.41-0.63-2.76-1.1-3.89c-1.46-3.57-3.14-6.34-6.94-9.14 c-3.86-2.85-8.11-3.42-10.03-3.11c-2.15,0.35-3.52,1.19-4.08,2.5c-0.43,1-0.25,2.03,0.01,2.79c-1.1,0.37-2.59,1.12-3.07,2.47 c-0.56,1.58-0.1,2.87,0.56,3.74c-0.94,0.6-2.13,1.55-2.47,2.74c-0.45,1.58,1.02,3.35,2,4.31c-0.48,0.64-1.06,1.51-1.19,2.14 c-0.68,3.33,3.66,5.21,6.33,5.79c0.41,0.09,0.83-0.1,1.05-0.46l0.93-1.62c3.43,1.06,8.45,2.48,10.54,2.48 c0.28,0,0.51-0.03,0.68-0.08c1.92-0.67,3.17-2.23,4.27-3.61c0.17-0.21,0.34-0.43,0.51-0.64 C115.07,115.73,115.79,113.39,115.57,111.13z" fill="url(#hand_2_)"/>
  </g>
</svg>

<svg viewBox="0 0 128 128" xmlns="http://www.w3.org/2000/svg">
  <defs>
    <linearGradient id="hat_x5F_back_2_" gradientTransform="matrix(1 0 0 -1 0 0)" gradientUnits="userSpaceOnUse" x1="55.843" x2="55.843" y1="-39.1748" y2="-73.8739">
      <stop offset="5.450581e-05" stop-color="#05080F"/>
      <stop offset="0.1125" stop-color="#070A15"/>
      <stop offset="0.2637" stop-color="#0B1026"/>
      <stop offset="0.4371" stop-color="#131A42"/>
      <stop offset="0.6268" stop-color="#1D286A"/>
      <stop offset="0.8276" stop-color="#2B399B"/>
      <stop offset="1" stop-color="#384ACC"/>
    </linearGradient>
    <linearGradient id="shirt_2_" gradientTransform="matrix(1 0 0 -1 0 0)" gradientUnits="userSpaceOnUse" x1="55.306" x2="55.306" y1="-95.9869" y2="-137.8038">
      <stop offset="0" stop-color="#384ACC"/>
      <stop offset="0.216" stop-color="#3548BF"/>
      <stop offset="0.6146" stop-color="#2F449D"/>
      <stop offset="0.9606" stop-color="#283F7A"/>
    </linearGradient>
    <linearGradient id="SVGID_6_" gradientTransform="matrix(1 0 0 -1 0 0)" gradientUnits="userSpaceOnUse" x1="55.8605" x2="55.8605" y1="-21.9135" y2="-58.7288">
      <stop offset="0.2075" stop-color="#384ACC"/>
      <stop offset="1" stop-color="#1D3678"/>
    </linearGradient>
    <linearGradient id="hand_2_" gradientTransform="matrix(1 0 0 -1 0 0)" gradientUnits="userSpaceOnUse" x1="89.2016" x2="112.7829" y1="-102.051" y2="-117.8184">
      <stop offset="0.5" stop-color="#A56C43"/>
      <stop offset="1" stop-color="#8D5738"/>
    </linearGradient>
    <linearGradient id="SVGID_1_" gradientTransform="matrix(1 0 0 -1 0 0)" gradientUnits="userSpaceOnUse" x1="18.9019" x2="55.583" y1="-75.8295" y2="-75.8295">
      <stop offset="0" stop-color="#BDBDBD"/>
      <stop offset="0.1386" stop-color="#FFFFFF" stop-opacity="0"/>
    </linearGradient>
    <linearGradient id="SVGID_2_" gradientTransform="matrix(1 0 0 -1 0 0)" gradientUnits="userSpaceOnUse" x1="55.652" x2="92.3331" y1="-75.8295" y2="-75.8295">
      <stop offset="0.8614" stop-color="#FFFFFF" stop-opacity="0"/>
      <stop offset="1" stop-color="#BDBDBD"/>
    </linearGradient>
    <linearGradient id="SVGID_3_" gradientTransform="matrix(1 0 0 -1 0 0)" gradientUnits="userSpaceOnUse" x1="96.2588" x2="120.7042" y1="-113.0725" y2="-113.0725">
      <stop offset="0" stop-color="#384ACC"/>
      <stop offset="0.216" stop-color="#3548BF"/>
      <stop offset="0.6146" stop-color="#2F449D"/>
      <stop offset="0.9606" stop-color="#283F7A"/>
    </linearGradient>
    <radialGradient id="SVGID_4_" cx="55.7895" cy="-3.855145" gradientTransform="matrix(1 0 0 -0.9637 0 0)" gradientUnits="userSpaceOnUse" r="33.9296">
      <stop offset="0" stop-color="#FFFFFF"/>
      <stop offset="0.4129" stop-color="#FAF9F8"/>
      <stop offset="0.9948" stop-color="#EBEAE6"/>
      <stop offset="0.9953" stop-color="#EBEAE6"/>
    </radialGradient>
    <linearGradient id="SVGID_5_" gradientTransform="matrix(1 0 0 -1 0 0)" gradientUnits="userSpaceOnUse" x1="58.1389" x2="57.7181" y1="-4.0125" y2="-22.5301">
      <stop offset="0.3696" stop-color="#3649BF"/>
      <stop offset="1" stop-color="#2C4585"/>
    </linearGradient>
  </defs>
  <path id="hat_x5F_back_1_" d="M105.69,56.69 A49.85 18.32 0 1 1 5.99,56.69 A49.85 18.32 0 1 1 105.69,56.69 Z" fill="url(#hat_x5F_back_2_)"/>
  <path d="M55.58,30.4 C55.58,30.4 32.62,31.49 19.83,35.37 C19.36,38.54 16,101.89 25.83,115.54 C29.73,120.95 39.02,121.25 39.02,121.25 L55.58,121.22 L55.58,30.4 Z" fill="#E7E7E7"/>
  <path d="M55.65,30.4 C55.65,30.4 78.61,31.49 91.4,35.37 C91.87,38.54 95.23,101.89 85.4,115.54 C81.5,120.95 72.21,121.25 72.21,121.25 L55.65,121.22 L55.65,30.4 Z" fill="#E7E7E7"/>
  <path d="M55.58,30.4 C55.58,30.4 32.62,31.49 19.83,35.37 C19.36,38.54 16,101.89 25.83,115.54 C29.73,120.95 39.02,121.25 39.02,121.25 L55.58,121.22 L55.58,30.4 Z" fill="url(#SVGID_1_)"/>
  <path d="M55.65,30.4 C55.65,30.4 78.61,31.49 91.4,35.37 C91.87,38.54 95.23,101.89 85.4,115.54 C81.5,120.95 72.21,121.25 72.21,121.25 L55.65,121.22 L55.65,30.4 Z" fill="url(#SVGID_2_)"/>
  <path id="shirt_1_" d="M104.62,124.03 L104.62,121.05 C104.62,104.26 79.63,95.96 55.31,95.99 C31.14,96.02 6,103.27 6,121.04 L6,124.02 L104.62,124.02 Z" fill="url(#shirt_2_)"/>
  <path d="M112.3,102.32 C111.71,102.01 110.99,102.21 110.65,102.78 C108.77,105.93 105.09,108.26 101.53,110.52 C99.89,111.56 98.21,112.63 96.75,113.75 C96.3,114.1 96.14,114.71 96.37,115.23 L100.2,123.96 L101.56,123.96 L104.05,123.96 L117.97,123.96 L119.27,123.96 L120.52,123.96 C121.03,118.84 121.16,107.03 112.3,102.32 Z" fill="url(#SVGID_3_)"/>
  <path d="M36.68,102.22 L38.73,104.54 L41.8,104.16 L40.24,106.82 L41.54,109.62 L38.53,108.96 L36.27,111.07 L35.96,108 L33.26,106.5 L36.09,105.26 Z" fill="#F9F722"/>
  <path d="M33.4,114.54 L33.9,117.2 L36.37,118.3 L33.99,119.59 L33.71,122.28 L31.75,120.43 L29.1,120.99 L30.26,118.55 L28.91,116.21 L31.59,116.56 Z" fill="#F9F722"/>
  <path d="M57.18,123.97 L64.03,123.97 L63.78,122.98 L66.8,119.52 L62.22,119.22 L59.86,115.28 L58.17,119.54 L53.69,120.56 L57.22,123.5 Z" fill="#F9F722"/>
  <path d="M17.12,109.56 L19.27,111.76 L22.3,111.25 L20.87,113.97 L22.3,116.69 L19.27,116.17 L17.12,118.38 L16.68,115.33 L13.92,113.97 L16.68,112.61 Z" fill="#F9F722"/>
  <path d="M79.25,107.19 L79.39,110.52 L82.21,112.29 L79.09,113.45 L78.27,116.68 L76.2,114.07 L72.88,114.3 L74.72,111.52 L73.48,108.43 L76.69,109.32 Z" fill="#F9F722"/>
  <path id="neck" d="M55.61,88.1 L46.53,88.1 L46.53,98.08 C46.53,102.59 50.23,106.25 54.79,106.25 L56.44,106.25 C61,106.25 64.7,102.59 64.7,98.08 L64.7,88.1 L55.61,88.1 Z" fill="#7A4C32"/>
  <path id="head_3_" d="M55.61,15.04 L55.61,15.04 L55.61,15.04 C38.41,15.04 22.48,27.83 22.48,54.95 C22.48,76.73 35.97,89.62 47.71,93.78 C50.51,94.77 53.21,95.27 55.61,95.27 C57.99,95.27 60.68,94.78 63.46,93.8 C75.22,89.66 88.74,76.77 88.74,54.96 C88.74,27.83 72.81,15.04 55.61,15.04 Z" fill="#A56C43"/>
  <path d="M89.88,40.78 L86.83,88.58 L83.05,88.6 L85.23,60.62 C85.29,56.79 85.72,47.78 82.68,45.59 C78.99,42.93 68.7,35.92 65.41,28.73 C65.41,28.73 52.76,40.59 30.4,45.62 C24.31,46.99 25.19,57.8 25.24,60.71 C25.38,67.99 26.13,80.04 26.72,88.83 L23.36,88.84 C21.53,74.55 21.34,39.06 22.17,35.17 C24.21,34.32 40.14,26.48 48.47,25.45 C60.68,23.94 82.03,36.02 89.88,40.78 Z" fill="url(#SVGID_4_)"/>
  <path id="mouth_2_" d="M64.14,76.15 C61.02,78.01 50.77,78.01 47.64,76.15 C45.85,75.08 44.01,76.72 44.76,78.35 C45.49,79.95 51.08,83.67 55.92,83.67 C60.76,83.67 66.27,79.95 67,78.35 C67.75,76.72 65.93,75.08 64.14,76.15 Z" fill="#473530"/>
  <path id="nose_2_" d="M59.67,68.38 C59.57,68.34 59.46,68.31 59.35,68.3 L52.41,68.3 C52.3,68.31 52.2,68.34 52.09,68.38 C51.46,68.63 51.12,69.29 51.41,69.98 C51.7,70.67 53.09,72.62 55.87,72.62 C58.65,72.62 60.04,70.67 60.33,69.98 C60.64,69.29 60.3,68.64 59.67,68.38 Z" fill="#875334"/>
  <path d="M44.52,59.26 A4.83 5.01 0 1 1 34.86,59.26 A4.83 5.01 0 1 1 44.52,59.26 Z" fill="#42312C"/>
  <path d="M77.15,59.26 A4.83 5.01 0 1 1 67.49,59.26 A4.83 5.01 0 1 1 77.15,59.26 Z" fill="#42312C"/>
  <path d="M46.4,51.12 C45.54,49.98 43.55,48.32 39.68,48.32 C35.81,48.32 33.82,49.98 32.96,51.12 C32.58,51.63 32.68,52.21 32.94,52.56 C33.18,52.89 33.91,53.19 34.71,52.92 C35.51,52.65 37.07,51.84 39.68,51.82 C42.29,51.84 43.85,52.65 44.65,52.92 C45.45,53.19 46.17,52.89 46.42,52.56 C46.69,52.21 46.78,51.63 46.4,51.12 Z" fill="#FFFFFF"/>
  <path d="M79.03,51.12 C78.17,49.98 76.18,48.32 72.31,48.32 C68.45,48.32 66.45,49.98 65.59,51.12 C65.21,51.63 65.31,52.21 65.57,52.56 C65.82,52.89 66.54,53.19 67.34,52.92 C68.14,52.65 69.7,51.84 72.31,51.82 C74.92,51.84 76.48,52.65 77.28,52.92 C78.08,53.19 78.8,52.89 79.05,52.56 C79.32,52.21 79.41,51.63 79.03,51.12 Z" fill="#FFFFFF"/>
  <path d="M74.15,17.45 C74.69,16.41 85.38,18.77 86.5,17.01 C87.67,15.16 81.85,7.37 69.3,4.92 C65.08,4.09 59.34,2.97 52.21,5.33 C48.01,6.72 29.34,13.43 25.21,38.08 C25.2,38.14 89.53,38.32 89.53,38.32 C86.95,29.75 73.61,18.49 74.15,17.45 Z" fill="url(#SVGID_5_)"/>
  <path d="M105.82,54.92 C99.12,26.47 59.29,14.61 32.66,26.51 C24.19,30.05 15.51,36.16 9.91,44.98 C8.07,47.57 1.07,62 11.46,58.06 C68.95,24.43 106.18,70.86 105.82,54.92 Z" fill="url(#SVGID_6_)"/>
  <path d="M112.17,81.48 L109.15,84.21 L111.57,90.24 L119.2,90.13 L123.34,78.45 L110.09,67.21 L95.5,78.62 L102.86,93.99 C102.31,96.17 99.2,108.44 98.37,111.73 C97.64,114.62 96.66,119.27 95.73,123.9 L96.7,123.9 L97.67,123.9 L101.49,123.9 L102.49,123.9 L103.49,123.9 L112.34,95.09 L104.48,80.9 L109.91,77.26 L115.32,79.65 L115.18,82.09 L112.17,81.48 Z" fill="#CF8900"/>
  <path id="hand_1_" d="M115.57,111.13 C115.43,109.72 114.94,108.37 114.47,107.24 C113.01,103.67 111.33,100.9 107.53,98.1 C103.67,95.25 99.42,94.68 97.5,94.99 C95.35,95.34 93.98,96.18 93.42,97.49 C92.99,98.49 93.17,99.52 93.43,100.28 C92.33,100.65 90.84,101.4 90.36,102.75 C89.8,104.33 90.26,105.62 90.92,106.49 C89.98,107.09 88.79,108.04 88.45,109.23 C88,110.81 89.47,112.58 90.45,113.54 C89.97,114.18 89.39,115.05 89.26,115.68 C88.58,119.01 92.92,120.89 95.59,121.47 C96,121.56 96.42,121.37 96.64,121.01 L97.57,119.39 C101,120.45 106.02,121.87 108.11,121.87 C108.39,121.87 108.62,121.84 108.79,121.79 C110.71,121.12 111.96,119.56 113.06,118.18 C113.23,117.97 113.4,117.75 113.57,117.54 C115.07,115.73 115.79,113.39 115.57,111.13 Z" fill="url(#hand_2_)"/>
</svg>
